X:1
T:[ID 2-98a]
T:[ID 2-98a]
T:Bezeichnung standardisiert: Menuett Men\"uet 5.
T:Urheber unbekannt Datum in der hier transkribierten schriftlichen Quelle: 1767
C:Urheber unbekannt
C:Datum in der hier transkribierten schriftlichen Quelle: 1767
L:1/8
M:3/4
K:F
V:1 treble 
V:1
 f4 af | c2 B2 A2 | Ac f2 a2 | c2 B2 A2 | d2 a2 b2 | c3 fga | c2 B2 A2 |{G} G6 :: c4 ec | %9
 G2 F2 E2 | GABGdB |{B} A4 G2 | Ac f3 g/a/ | c2 B2 A2 | cefefa | c2 B2 A2 | dB A2"^1)" G2 || %17

